assets/images/thingsboard_center.svg

<?xml version="1.0" encoding="UTF-8" standalone="no"?>
<svg
   width="320"
   height="320"
   version="1.1"
   viewBox="0 0 320 320"
   id="svg8"
   sodipodi:docname="thingsboard_center.svg"
   inkscape:version="1.1.2 (0a00cf5339, 2022-02-04)"
   xmlns:inkscape="http://www.inkscape.org/namespaces/inkscape"
   xmlns:sodipodi="http://sodipodi.sourceforge.net/DTD/sodipodi-0.dtd"
   xmlns="http://www.w3.org/2000/svg"
   xmlns:svg="http://www.w3.org/2000/svg">
  <defs
     id="defs12">
    <rect
       x="119.76956"
       y="107.93323"
       width="74.151139"
       height="109.68207"
       id="rect2692" />
  </defs>
  <sodipodi:namedview
     id="namedview10"
     pagecolor="#ffffff"
     bordercolor="#666666"
     borderopacity="1.0"
     inkscape:pageshadow="2"
     inkscape:pageopacity="0.0"
     inkscape:pagecheckerboard="0"
     showgrid="false"
     inkscape:zoom="1.628125"
     inkscape:cx="167.37044"
     inkscape:cy="147.71593"
     inkscape:window-width="1366"
     inkscape:window-height="736"
     inkscape:window-x="0"
     inkscape:window-y="-5"
     inkscape:window-maximized="1"
     inkscape:current-layer="g6" />
  <g
     stroke-width="28"
     id="g2" />
  <g
     shape-rendering="auto"
     id="g6">
    <path
       id="path4"
       style="text-indent:0;text-decoration-line:none;text-decoration-style:solid;text-decoration-color:#000000;text-transform:none;white-space:normal;isolation:auto;mix-blend-mode:normal"
       d="M 220.1582 55.707031 C 218.1135 55.803231 216.13793 56.620942 214.64062 58.044922 C 207.78473 64.850022 194.41797 78.267578 194.41797 78.267578 L 206.24609 90.111328 C 206.24609 90.111328 219.20797 77.138547 226.41797 69.935547 C 228.05047 68.331547 228.73199 66.186028 228.74219 63.923828 C 228.76469 59.207228 224.88 55.489831 220.1582 55.707031 z M 206.24609 90.111328 L 176.24219 60.107422 C 172.26619 56.132322 165.81975 56.132322 161.84375 60.107422 L 137.05273 84.898438 L 99.138672 122.8125 L 62.5 159.45117 C 58.5249 163.42717 58.5249 169.87361 62.5 173.84961 L 80.65625 192.00586 L 112.4082 223.75977 L 142.88672 254.23633 C 146.86252 258.21223 153.30916 258.21263 157.28516 254.23633 L 182.07617 229.44531 L 219.99023 191.5332 L 219.99219 191.5332 C 219.9947 191.53571 232.96367 204.49387 240.16797 211.70117 C 241.77197 213.33357 243.91749 214.01509 246.17969 214.02539 C 250.89629 214.04789 254.61378 210.16331 254.39648 205.44141 L 254.39453 205.44336 C 254.29833 203.39866 253.48069 201.42298 252.05664 199.92578 C 245.25154 193.06988 231.83398 179.70312 231.83398 179.70312 L 219.99023 191.53125 L 256.63086 154.89062 C 260.60626 150.91422 260.60458 144.46819 256.62891 140.49219 L 238 121.86523 C 238.00125 121.86398 250.96027 108.8921 258.16992 101.68945 C 259.80242 100.08545 260.48384 97.939934 260.49414 95.677734 C 260.51664 90.961134 256.63196 87.243738 251.91016 87.460938 C 249.86546 87.557137 247.88988 88.372905 246.39258 89.796875 C 239.53668 96.601975 226.16992 110.01953 226.16992 110.01953 L 236.68359 120.54883 L 206.24609 90.111328 z M 182.07617 229.44531 C 182.07617 229.44531 195.04891 242.40723 202.25391 249.61523 C 203.85791 251.24763 206.00342 251.92925 208.26562 251.93945 C 212.98222 251.96245 216.69972 248.07737 216.48242 243.35547 L 216.48047 243.35547 C 216.38427 241.31077 215.5685 239.33509 214.14453 237.83789 C 207.33943 230.98199 193.91992 217.61523 193.91992 217.61523 L 182.07617 229.44531 z M 112.4082 223.75977 C 112.4082 223.75977 99.448234 236.7325 92.240234 243.9375 C 90.607834 245.5415 89.926316 247.68702 89.916016 249.94922 C 89.893509 254.66515 93.779002 258.38218 98.5 258.16602 C 100.54401 258.06959 102.5188 257.25177 104.01562 255.82812 C 110.87172 249.02332 124.23828 235.60547 124.23828 235.60547 L 112.4082 223.75977 z M 80.65625 192.00586 C 80.65625 192.00586 67.694328 204.97859 60.486328 212.18359 C 58.853928 213.78759 58.172409 215.93311 58.162109 218.19531 C 58.139603 222.91135 62.025097 226.62827 66.746094 226.41211 C 68.790102 226.31548 70.764893 225.4997 72.261719 224.07617 C 79.117819 217.27147 92.484375 203.85352 92.484375 203.85352 L 80.65625 192.00586 z M 99.138672 122.8125 C 99.138672 122.8125 86.165891 109.85062 78.962891 102.64062 C 77.358891 101.00813 75.213372 100.32661 72.951172 100.31641 C 70.592872 100.30521 68.484088 101.26981 66.992188 102.82812 L 66.992188 102.83008 C 65.500187 104.38838 64.625675 106.53939 64.734375 108.90039 C 64.830575 110.94509 65.648286 112.92262 67.072266 114.41992 C 73.877366 121.27582 87.294922 134.64258 87.294922 134.64258 L 99.138672 122.8125 z M 137.05273 84.898438 C 137.05273 84.898438 124.07995 71.938516 116.87695 64.728516 C 115.27295 63.096016 113.12743 62.414497 110.86523 62.404297 C 106.14863 62.381697 102.43124 66.264528 102.64844 70.986328 C 102.74464 73.031028 103.56039 75.006606 104.98438 76.503906 C 111.78947 83.359806 125.20898 96.728516 125.20898 96.728516 L 137.05273 84.898438 z M 148.13086 103.59375 L 164.75977 103.59375 L 197.35938 202.38672 L 178.21875 202.38672 L 172.23633 182.03125 L 140.71484 182.03125 L 134.73242 202.38672 L 115.71094 202.38672 L 148.13086 103.59375 z M 156.50586 128.42773 L 145.55859 165.54297 L 167.39258 165.54297 L 156.50586 128.42773 z " />
  </g>
</svg>

<?xml version="1.0" encoding="UTF-8"?>
<svg width="320" height="320" version="1.1" viewBox="0 0 320 320" xmlns="http://www.w3.org/2000/svg">
 <g stroke-width="28"></g>
 <g shape-rendering="auto">
  <path d="m66.992 102.83c-1.492 1.5583-2.3663 3.7103-2.2576 6.0713 0.0962 2.0447 0.91322 4.0204 2.3372 5.5177 6.8051 6.8559 20.223 20.223 20.223 20.223l11.844-11.83s-12.973-12.961-20.176-20.171c-1.604-1.6325-3.7498-2.3141-6.012-2.3243-2.3583-0.0112-4.4673 0.95389-5.9592 2.5122zm32.147 19.983-36.639 36.639c-3.9751 3.976-3.9751 10.421 0 14.397l80.387 80.387c3.9758 3.9759 10.422 3.9763 14.398 0l99.345-99.345c3.9754-3.9764 3.975-10.422-6.7e-4 -14.398l-18.63-18.628-61.758-61.758c-3.976-3.9751-10.421-3.9751-14.397 0l-24.791 24.791zm37.914-37.914s-12.973-12.961-20.176-20.171c-1.604-1.6325-3.7498-2.3141-6.012-2.3243-4.7166-0.0226-8.4341 3.8616-8.2169 8.5834 0.0962 2.0447 0.91322 4.0204 2.3372 5.5177 6.8051 6.8559 20.223 20.223 20.223 20.223zm69.193 5.2132s12.961-12.973 20.171-20.176c1.6325-1.604 2.3141-3.7498 2.3243-6.012 0.0225-4.7166-3.8616-8.4341-8.5834-8.2169-2.0447 0.0962-4.0204 0.91322-5.5177 2.3372-6.8559 6.8051-20.223 20.223-20.223 20.223zm31.753 31.753s12.961-12.973 20.171-20.176c1.6325-1.604 2.314-3.7498 2.3243-6.012 0.0225-4.7166-3.8616-8.4341-8.5834-8.2169-2.0447 0.0962-4.0204 0.91323-5.5177 2.3372-6.8559 6.8051-20.223 20.223-20.223 20.223zm-18.009 69.667s12.973 12.961 20.178 20.169c1.604 1.6324 3.7498 2.314 6.012 2.3243 4.7166 0.0225 8.4342-3.8615 8.2169-8.5834l-2e-3 2e-3c-0.0962-2.0447-0.91415-4.0214-2.3382-5.5186-6.8051-6.8559-20.222-20.222-20.222-20.222l-11.844 11.83zm-37.914 37.914s12.973 12.961 20.178 20.169c1.604 1.6324 3.7498 2.314 6.012 2.3242 4.7166 0.023 8.4342-3.8615 8.2169-8.5834h-2e-3c-0.0962-2.0447-0.91323-4.0205-2.3372-5.5177-6.8051-6.8559-20.223-20.223-20.223-20.223l-11.844 11.83zm-69.667-5.6871s-12.961 12.973-20.169 20.178c-1.6324 1.604-2.314 3.7498-2.3243 6.012-0.02251 4.7166 3.8615 8.4342 8.5834 8.2169h-0.0019c2.0447-0.096 4.0204-0.9132 5.5177-2.3373 6.8561-6.8048 20.223-20.223 20.223-20.223zm-31.753-31.753s-12.961 12.973-20.169 20.178c-1.6324 1.604-2.314 3.7498-2.3243 6.012-0.02251 4.7167 3.8615 8.4342 8.5834 8.2169h-0.0019c2.0447-0.0962 4.0204-0.91322 5.5177-2.3372 6.8561-6.8047 20.223-20.223 20.223-20.223zm87.237-90.554c1.6794-1.7064 3.9669-2.6599 6.2971-2.626 1.6628 0.0237 3.253 0.55012 4.5625 1.5097l16.499 12.1c3.2009 2.297 4.1445 6.6589 2.2308 10.312-1.9137 3.6528-6.1234 5.5243-9.9506 4.4227l6.124 23.948c1.1128 4.3517-1.564 8.9677-5.9833 10.317l-44.642 13.631 8.2456 31.883c1.1728 4.3696-1.5017 9.0445-5.9546 10.407-4.4529 1.3625-8.9756-1.1106-10.068-5.5047l-10.282-39.769c-1.1265-4.3556 1.5493-8.9847 5.9759-10.338l44.661-13.637-4.1219-16.118c-2.7634 3.0643-7.2335 3.8084-10.586 1.7615-3.3531-2.0469-4.6144-6.2896-2.9861-10.047l8.1169-19.454c0.43322-1.0376 1.0673-1.9888 1.8624-2.7973z" color="#000000" color-rendering="auto" fill-rule="evenodd" image-rendering="auto" solid-color="#000000" style="isolation:auto;mix-blend-mode:normal;text-decoration-color:#000000;text-decoration-line:none;text-decoration-style:solid;text-indent:0;text-transform:none;white-space:normal"/>
 </g>
</svg>
